packages/foundations/assets/icons/functional/images/transportation/boat_20.svg

<svg width="20" height="20" viewBox="0 0 20 20" fill="none" xmlns="http://www.w3.org/2000/svg">
<g clip-path="url(#clip0_187_857)">
<path fill-rule="evenodd" clip-rule="evenodd" d="M6.19481 12.8736C6.58054 13.5358 7.00385 14.377 7.66402 14.3768C8.32419 14.3766 8.74773 13.5344 9.13359 12.8729C9.51944 12.2115 10.4751 12.2114 10.8611 12.8728C11.247 13.5342 11.5958 14.3768 12.3306 14.3768C13.0655 14.3768 13.4145 13.5339 13.8003 12.8728C14.1861 12.2117 15.1413 12.2115 15.5275 12.8724C15.9136 13.5333 16.4446 14.3768 16.9971 14.3768C17.5496 14.3768 17.9974 14.8245 17.9974 15.3768C17.9974 15.8897 17.5654 16.3828 16.9971 16.3767C16.1573 16.3678 15.3793 15.9288 14.6634 15.0598C13.9211 15.9326 13.1436 16.3716 12.3306 16.3768C11.5177 16.3821 10.74 15.9434 9.99736 15.0608C9.21303 15.9382 8.43525 16.3768 7.66402 16.3768C6.89279 16.3768 6.1149 15.9385 5.33036 15.0618C4.57364 15.9385 3.79597 16.3768 2.99736 16.3768C2.44507 16.3768 1.99736 15.9291 1.99736 15.3768C1.99736 14.8245 2.44507 14.3768 2.99736 14.3768C3.55182 14.3768 4.08083 13.5358 4.46657 12.8736C4.8523 12.2113 5.80908 12.2113 6.19481 12.8736ZM9.591 3.67794C10.768 3.85484 12.1035 4.80419 13.5974 6.526L16.8124 5.92112C17.6155 5.77001 18.3109 6.62433 17.8639 7.40291C17.1992 8.56088 16.5325 9.71853 15.8639 10.8759C15.5883 11.3545 14.9769 11.519 14.4983 11.2434C14.0539 10.9875 13.846 10.3768 14.1308 9.87779C14.4334 9.34745 14.7383 8.81746 15.0454 8.28783L3.99736 10.3768V11.3768C3.99736 11.9291 3.54964 12.3768 2.99736 12.3768C2.48452 12.3768 2.00092 11.9685 1.99736 11.3768C1.99535 11.0435 1.99535 10.7102 1.99736 10.3768C1.99736 9.36629 2.50796 8.63008 3.67023 8.39408C3.95911 8.34092 4.24747 8.28686 4.53529 8.23191C4.8308 6.3647 4.99359 5.29922 5.02365 5.03545C5.06874 4.63979 5.37673 4.25351 5.83068 4.16624C6.72671 3.99399 7.62421 3.82372 8.52316 3.65544C8.87324 3.59918 9.22294 3.62262 9.591 3.67794ZM8.86836 5.62522C8.61775 5.67096 7.96941 5.79383 6.92336 5.99383L6.66236 7.831L11.2793 6.96184C10.3143 6.05057 9.7312 5.74085 9.21585 5.64244C9.11091 5.6224 9.03236 5.60008 8.86836 5.62522Z" fill="#1A1C1F"/>
</g>
<defs>
<clipPath id="clip0_187_857">
<rect width="20" height="20" fill="white"/>
</clipPath>
</defs>
</svg>

<svg xmlns="http://www.w3.org/2000/svg" width="20" height="20" fill="none"><g clip-path="url(#a)"><path fill="#1A1C1F" fill-rule="evenodd" d="M6.195 12.874c.386.662.809 1.503 1.469 1.503s1.084-.843 1.47-1.504a1 1 0 0 1 1.727 0c.386.661.735 1.504 1.47 1.504s1.084-.843 1.47-1.504a1 1 0 0 1 1.726 0c.387.66.918 1.504 1.47 1.504a1 1 0 0 1 1 1c0 .513-.432 1.006-1 1q-1.26-.014-2.334-1.317-1.114 1.31-2.332 1.317-1.22.007-2.334-1.316-1.176 1.316-2.333 1.316T5.33 15.062q-1.134 1.315-2.333 1.315a1 1 0 1 1 0-2c.555 0 1.084-.841 1.47-1.503a1 1 0 0 1 1.728 0M9.59 3.678q1.766.265 4.006 2.848l3.215-.605c.803-.151 1.499.703 1.052 1.482q-.998 1.737-2 3.473a1 1 0 0 1-1.366.367 1.01 1.01 0 0 1-.367-1.365q.453-.795.914-1.59L3.997 10.377v1a1 1 0 1 1-2 0 83 83 0 0 1 0-1c0-1.01.511-1.747 1.673-1.983q.434-.08.865-.162.444-2.8.489-3.197c.045-.395.353-.781.807-.869q1.344-.258 2.692-.51c.35-.057.7-.033 1.068.022m-.723 1.947q-.375.069-1.945.369l-.26 1.837 4.616-.87c-.965-.91-1.548-1.22-2.063-1.319-.105-.02-.184-.042-.348-.017" clip-rule="evenodd"/></g><defs><clipPath id="a"><path fill="#fff" d="M0 0h20v20H0z"/></clipPath></defs></svg>
